X:1
T:Title
%%score { 1 | 2 }
L:1/8
M:4/4
K:Bb
V:1 treble nm="Grand Piano"
V:2 bass 
V:1
 z4 z2[Q:1/4=110] [DF]2 | [B,D]2 [DF]2 [Fd]2 [Ec]2 | [Ec]2 [DB]2 [DB]2 [FA]2 | %3
 [EG]2 [B,E]2 [GB]2 [EG]2 | [DF]6 [DF]2 | [B,D]2 [DF]2 [Fd]2 [Ec]2 | [Ec]2 [DB]2 [EA]2 [FB]2 | %7
 [=Ec]2 [EB]2 [EA]2 [EB]2 | [Ec]6 [DF]2 | [B,D]2 [DF]2 [Fd]2 [Ec]2 | [Ec]2 [DB]2 [DB]2 [FA]2 | %11
 [EG]2 [B,E]2 [GB]2 [EG]2 | [DF]4 [FB]2 [Gc]2 | d2 d2 e2 d2 | [Gc]2 [GB]2 [FA]2 G2 | %15
[M:5/4] F2 d2 [=Ed]3 [A,_Ec]3 |[M:3/4] [DB]6 |[M:6/8] [DF]2 [DF] [DF][EG][DF] | [DF]3 [DB]3 | %19
 c2 c cBc | d3 [DB]3 | [GB]2 [GB] [GB][FA][EG] | [DF]3 [DB]3 | d2 d cBc | [DB]6 | %25
[M:4/4] [DF]2 [B,D]2 [DF]2 [Fd]2 | [Ec]2 [Ec]2 [DB]2 [DB]2 | [FA]2 [EG]2 [B,E]2 [GB]2 | %28
 [EG]2 [DF]6 | [DF]2 [B,D]2 [DF]2 [Fd]2 | [Ec]2 [Ec]2 [DB]2 [EA]2 | [FB]2 [=Ec]2 [EB]2 [EA]2 | %32
 [=EB]2 [_Ec]6 | [DF]2 [B,D]2 [DF]2 [Fd]2 | [Ec]2 [Ec]2 [DB]2 [DB]2 | [FA]2 [EG]2 [B,E]2 [GB]2 | %36
 [EG]2 [DF]4 [FB]2 | [Gc]2 d2 d2 e2 | d2 [Gc]2 [GB]2 [FA]2 |[M:5/4] G2 F2 d2 [=Ed]3 [A,_Ec]- | %40
[M:3/4] [A,Ec]2 [DB]4- |[M:1/4] [DB]2 |[M:3/4] [Fd]>[Ec] [DB]3 [DA] | (3[E-c][EB][EG] [DF]4 | %44
 [Fe]>[Fd] [Gd]3 [Gc] |[M:2/4] [FB][EA] [DB]2- |[M:3/2] [DB]2 [DF]2- [DF][EG] [DF]4 [B,D]2- | %47
 [B,D]2 [DB]2- [DB][EG] [DF]6- | [DF]2 [FB]2- [FB][Gc] d6 |[M:4/4] c2 B2 A2 [DB]2- | [DB]6 z2 |] %51
V:2
 z4 z2 [B,,B,]2 | [B,,F,]2 [B,,B,]2 [F,A,]2 [F,A,]2 | [B,,B,]2 [B,,F,]2 [B,,F,]2 [D,B,]2 | %3
 [E,B,]2 [E,G,]2 [E,B,]2 [E,B,]2 | [B,,B,]6 [B,,B,]2 | [B,,F,]2 [B,,B,]2 [F,A,]2 [F,A,]2 | %6
 [B,,B,]2 [B,,F,]2 [C,F,]2 [D,B,]2 | [C,B,]2 [C,G,]2 [C,C]2 [C,C]2 | [F,A,]6 [B,,B,]2 | %9
 [B,,F,]2 [B,,B,]2 [F,A,]2 [F,A,]2 | [B,,B,]2 [B,,F,]2 [B,,F,]2 [D,B,]2 | %11
 [E,B,]2 [E,G,]2 [E,B,]2 [E,B,]2 | [B,,B,]4 [D,B,]2 [E,B,]2 | [F,B,F]2 [B,F]2 [A,CF]2 [B,F]2 | %14
 [E,E]2 [E,E]2 [E,B,]2 [E,B,_D]2 |[M:5/4] [F,B,D]2 [F,B,F]2 [C,B,]3 [F,,F,]3 |[M:3/4] [B,,B,]6 | %17
[M:6/8] [B,,B,]2 [B,,B,] [B,,B,][B,,B,][B,,B,] | [B,,B,]3 [B,,F,]3 | %19
 [F,A,F]2 [F,A,F] [F,A,F][F,G,F][F,A,F] | [B,F]3[K:bass] [B,,B,]3 | %21
 [E,B,]2 [E,B,] [E,B,][E,B,][E,B,] | [B,,B,]3 [B,,F,]3 | [F,F]2 [F,F] [F,E][F,G,D][F,A,E] | %24
 [B,,B,]6 |[M:4/4] [B,,B,]2 [B,,F,]2 [B,,B,]2 [F,A,]2 | [F,A,]2 [B,,B,]2 [B,,F,]2 [B,,F,]2 | %27
 [D,B,]2 [E,B,]2 [E,G,]2 [E,B,]2 | [E,B,]2 [B,,B,]6 | [B,,B,]2 [B,,F,]2 [B,,B,]2 [F,A,]2 | %30
 [F,A,]2 [B,,B,]2 [B,,F,]2 [C,F,]2 | [D,B,]2 [C,B,]2 [C,G,]2 [C,C]2 | [C,C]2 [F,A,]6 | %33
 [B,,B,]2 [B,,F,]2 [B,,B,]2 [F,A,]2 | [F,A,]2 [B,,B,]2 [B,,F,]2 [B,,F,]2 | %35
 [D,B,]2 [E,B,]2 [E,G,]2 [E,B,]2 | [E,B,]2 [B,,B,]4 [D,B,]2 | %37
 [E,B,]2[K:treble] [F,B,F]2 [B,F]2 [A,CF]2 | [B,F]2[K:bass] [E,E]2 [E,E]2 [E,B,]2 | %39
[M:5/4] [E,B,_D]2 [F,B,=D]2 [F,B,F]2 [C,B,]3 [F,,F,]- |[M:3/4] [F,,F,]2 [B,,B,]4- | %41
[M:1/4] [B,,B,]2 |[M:3/4] [B,,B,]>[B,,F,] [B,,F,]3 [B,,^F,] | (3:2:2[B,,G,]2 [B,,B,] [B,,B,]4 | %44
 [C,A,]>[D,B,] [E,B,]3 [E,E] |[M:2/4] [F,D][F,C] [B,,B,]2- | %46
[M:3/2] [B,,B,]2 [B,,B,]2- [B,,B,][B,,B,] [B,,B,]4 [B,,F,]2- | %47
 [B,,F,]2 [B,,F,]2- [B,,F,][B,,B,] [B,,B,]6- | [B,,B,]2 [D,B,]2- [D,B,][E,B,] [F,B,F]6 | %49
[M:4/4] [F,E]2 [F,D]2 [F,C]2 [B,,F,]2- | [B,,F,]6 z2 |] %51

